X:3
T:Lad O'Beirne`s
C:James 'Lad' O'Beirne
S:set for flute, often played as single reel
Z:Paul Mulvaney
R:reel
M:4/4
L:1/8
K:G
|:DG G2 DGBG|A2 BG AGEG|DG G2 DGBd|ed d2 efge|
dB B2 dBGB|cE E2  GEDE|DEGA B3 c|dBAc BG G2:|
|:Bd d2 d2 ef|g3 f gedB|dB B2 dBGB|cE E2 GEDE|
Bdd^c d2 ef|g3 f gedB|DEGA  B3 c|dBAc  BG G2:|
</abc>
